static/img/kroki/8ed8aa8741af7fde87862e2700eb7c15.svg

<?xml version="1.0" encoding="us-ascii" standalone="no"?><svg xmlns="http://www.w3.org/2000/svg" xmlns:xlink="http://www.w3.org/1999/xlink" contentStyleType="text/css" height="645px" preserveAspectRatio="none" style="width:241px;height:645px;" version="1.1" viewBox="0 0 241 645" width="241px" zoomAndPan="magnify"><defs/><g><!--class aws_ec2_network_acl--><g id="elem_aws_ec2_network_acl"><rect codeLine="23" fill="#3D176E" height="39.7891" id="aws_ec2_network_acl" rx="2.5" ry="2.5" style="stroke:#000D19;stroke-width:0.5;" width="224" x="8.5" y="599.55"/><ellipse cx="23.5" cy="619.4445" fill="#ADD1B2" rx="11" ry="11" style="stroke:#181818;stroke-width:1.0;"/><path d="M26.4688,625.0852 Q25.8906,625.382 25.25,625.5227 Q24.6094,625.6789 23.9063,625.6789 Q21.4063,625.6789 20.0781,624.0383 Q18.7656,622.382 18.7656,619.257 Q18.7656,616.132 20.0781,614.4758 Q21.4063,612.8195 23.9063,612.8195 Q24.6094,612.8195 25.25,612.9758 Q25.9063,613.132 26.4688,613.4289 L26.4688,616.1477 Q25.8438,615.5695 25.25,615.3039 Q24.6563,615.0227 24.0313,615.0227 Q22.6875,615.0227 22,616.1008 Q21.3125,617.1633 21.3125,619.257 Q21.3125,621.3508 22,622.4289 Q22.6875,623.4914 24.0313,623.4914 Q24.6563,623.4914 25.25,623.2258 Q25.8438,622.9445 26.4688,622.3664 L26.4688,625.0852 Z " fill="#000000"/><text fill="#D9B8FF" font-family="Helvetica" font-size="17" lengthAdjust="spacing" textLength="182" x="42.5" y="625.3298">aws_ec2_network_acl</text></g><!--class network_acl--><g id="elem_network_acl"><rect codeLine="26" fill="#3D176E" height="39.7891" id="network_acl" rx="2.5" ry="2.5" style="stroke:#000D19;stroke-width:0.5;" width="144" x="48.5" y="438.76"/><ellipse cx="63.5" cy="458.6545" fill="#ADD1B2" rx="11" ry="11" style="stroke:#181818;stroke-width:1.0;"/><path d="M66.4688,464.2952 Q65.8906,464.592 65.25,464.7327 Q64.6094,464.8889 63.9063,464.8889 Q61.4063,464.8889 60.0781,463.2483 Q58.7656,461.592 58.7656,458.467 Q58.7656,455.342 60.0781,453.6858 Q61.4063,452.0295 63.9063,452.0295 Q64.6094,452.0295 65.25,452.1858 Q65.9063,452.342 66.4688,452.6389 L66.4688,455.3577 Q65.8438,454.7795 65.25,454.5139 Q64.6563,454.2327 64.0313,454.2327 Q62.6875,454.2327 62,455.3108 Q61.3125,456.3733 61.3125,458.467 Q61.3125,460.5608 62,461.6389 Q62.6875,462.7014 64.0313,462.7014 Q64.6563,462.7014 65.25,462.4358 Q65.8438,462.1545 66.4688,461.5764 L66.4688,464.2952 Z " fill="#000000"/><text fill="#D9B8FF" font-family="Helvetica" font-size="17" lengthAdjust="spacing" textLength="102" x="82.5" y="464.5398">network_acl</text></g><!--class resource--><g id="elem_resource"><rect codeLine="29" fill="#3D176E" height="310.7578" id="resource" rx="2.5" ry="2.5" style="stroke:#000D19;stroke-width:0.5;" width="227" x="7" y="7"/><ellipse cx="75.75" cy="26.8945" fill="#ADD1B2" rx="11" ry="11" style="stroke:#181818;stroke-width:1.0;"/><path d="M78.7188,32.5352 Q78.1406,32.832 77.5,32.9727 Q76.8594,33.1289 76.1563,33.1289 Q73.6563,33.1289 72.3281,31.4883 Q71.0156,29.832 71.0156,26.707 Q71.0156,23.582 72.3281,21.9258 Q73.6563,20.2695 76.1563,20.2695 Q76.8594,20.2695 77.5,20.4258 Q78.1563,20.582 78.7188,20.8789 L78.7188,23.5977 Q78.0938,23.0195 77.5,22.7539 Q76.9063,22.4727 76.2813,22.4727 Q74.9375,22.4727 74.25,23.5508 Q73.5625,24.6133 73.5625,26.707 Q73.5625,28.8008 74.25,29.8789 Q74.9375,30.9414 76.2813,30.9414 Q76.9063,30.9414 77.5,30.6758 Q78.0938,30.3945 78.7188,29.8164 L78.7188,32.5352 Z " fill="#000000"/><text fill="#D9B8FF" font-family="Helvetica" font-size="17" lengthAdjust="spacing" textLength="71" x="101.25" y="32.7798">resource</text><line style="stroke:#000D19;stroke-width:0.5;" x1="8" x2="233" y1="46.7891" y2="46.7891"/><text fill="#D9B8FF" font-family="sans-serif" font-size="14" font-weight="bold" lengthAdjust="spacing" textLength="29" x="18" y="68.7842">age</text><text fill="#D9B8FF" font-family="sans-serif" font-size="14" lengthAdjust="spacing" textLength="66" x="47" y="68.7842">: duration</text><text fill="#D9B8FF" font-family="sans-serif" font-size="14" font-weight="bold" lengthAdjust="spacing" textLength="43" x="18" y="95.0811">atime</text><text fill="#D9B8FF" font-family="sans-serif" font-size="14" lengthAdjust="spacing" textLength="70" x="61" y="95.0811">: datetime</text><text fill="#D9B8FF" font-family="sans-serif" font-size="14" font-weight="bold" lengthAdjust="spacing" textLength="43" x="18" y="121.3779">ctime</text><text fill="#D9B8FF" font-family="sans-serif" font-size="14" lengthAdjust="spacing" textLength="70" x="61" y="121.3779">: datetime</text><text fill="#D9B8FF" font-family="sans-serif" font-size="14" font-weight="bold" lengthAdjust="spacing" textLength="14" x="18" y="147.6748">id</text><text fill="#D9B8FF" font-family="sans-serif" font-size="14" lengthAdjust="spacing" textLength="48" x="32" y="147.6748">: string</text><text fill="#D9B8FF" font-family="sans-serif" font-size="14" font-weight="bold" lengthAdjust="spacing" textLength="33" x="18" y="173.9717">kind</text><text fill="#D9B8FF" font-family="sans-serif" font-size="14" lengthAdjust="spacing" textLength="48" x="51" y="173.9717">: string</text><text fill="#D9B8FF" font-family="sans-serif" font-size="14" font-weight="bold" lengthAdjust="spacing" textLength="90" x="18" y="200.2686">last_access</text><text fill="#D9B8FF" font-family="sans-serif" font-size="14" lengthAdjust="spacing" textLength="66" x="108" y="200.2686">: duration</text><text fill="#D9B8FF" font-family="sans-serif" font-size="14" font-weight="bold" lengthAdjust="spacing" textLength="90" x="18" y="226.5654">last_update</text><text fill="#D9B8FF" font-family="sans-serif" font-size="14" lengthAdjust="spacing" textLength="66" x="108" y="226.5654">: duration</text><text fill="#D9B8FF" font-family="sans-serif" font-size="14" font-weight="bold" lengthAdjust="spacing" textLength="48" x="18" y="252.8623">mtime</text><text fill="#D9B8FF" font-family="sans-serif" font-size="14" lengthAdjust="spacing" textLength="70" x="66" y="252.8623">: datetime</text><text fill="#D9B8FF" font-family="sans-serif" font-size="14" font-weight="bold" lengthAdjust="spacing" textLength="43" x="18" y="279.1592">name</text><text fill="#D9B8FF" font-family="sans-serif" font-size="14" lengthAdjust="spacing" textLength="48" x="61" y="279.1592">: string</text><text fill="#D9B8FF" font-family="sans-serif" font-size="14" font-weight="bold" lengthAdjust="spacing" textLength="34" x="18" y="305.4561">tags</text><text fill="#D9B8FF" font-family="sans-serif" font-size="14" lengthAdjust="spacing" textLength="171" x="52" y="305.4561">: dictionary[string, string]</text></g><!--reverse link network_acl to aws_ec2_network_acl--><g id="link_network_acl_aws_ec2_network_acl"><path codeLine="41" d="M120.5,496.81 C120.5,527.33 120.5,568.66 120.5,599.22 " fill="none" id="network_acl-backto-aws_ec2_network_acl" style="stroke:#FFAF37;stroke-width:2.0;"/><polygon fill="none" points="120.5,478.81,114.5,496.81,126.5,496.81,120.5,478.81" style="stroke:#FFAF37;stroke-width:2.0;"/></g><!--reverse link resource to network_acl--><g id="link_resource_network_acl"><path codeLine="42" d="M120.5,335.85 C120.5,384.14 120.5,413.37 120.5,438.68 " fill="none" id="resource-backto-network_acl" style="stroke:#FFAF37;stroke-width:2.0;"/><polygon fill="none" points="120.5,317.85,114.5,335.85,126.5,335.85,120.5,317.85" style="stroke:#FFAF37;stroke-width:2.0;"/></g><!--SRC=[XP9RQy9048NVyoiMV0iLlD2gfIzMAEsBbDgtKcJSdSJ5P5Tc9nLx-U_TD5RMnCjRSiwNEMU6BBL2WVcQjoB7V87a8hVIPWq4kHWJsSt4PfP4AqaWwG_gveCrV16OGexY4RCFP2sXJhmkjLmPT4xq0kiUv2ebMnXLZMS2uxo5XWDgae5pOsRIYu8nAAD6Ys6IrCdwq5PVTGStsC0iAQGTqkbqL7TKHov6dTrxJypq9ufkUBIfPMpKR4JyKMTRbaHGih7elt-oupCefKqghWFjfUf41kb0dor1sKr99v2vCCOn4bhUhd7Is0f7GvKCZi9Ff-18bgSJi75pbBsvGTvOMir1Pk8hYdvszWcPqDc297ejZY75EBuLgY1WRKsfiCuh3HZBPw_98vfMfU3yJsTI_-hh7me-YtsqzBzqBU7FATRbh9gJ7yanK4dxmGnfDL7ByZEWxLlbNUsOTxzgkFlTTxlTFdQiQ7-A2WcjNm00]--></g></svg>

<svg xmlns="http://www.w3.org/2000/svg" width="241" height="645" viewBox="0 0 241 645"><rect width="224" height="39.789" x="8.5" y="599.55" fill="#3D176E" rx="2.5" ry="2.5" style="stroke:#000d19;stroke-width:.5"/><circle cx="23.5" cy="619.444" r="11" fill="#ADD1B2" style="stroke:#181818;stroke-width:1"/><path d="M26.469 625.085q-.578.297-1.219.438-.64.156-1.344.156-2.5 0-3.828-1.64-1.312-1.657-1.312-4.782t1.312-4.781q1.328-1.657 3.828-1.657.703 0 1.344.157.656.156 1.219.453v2.719q-.625-.579-1.219-.844-.594-.281-1.219-.281-1.343 0-2.031 1.078-.687 1.062-.687 3.156t.687 3.172q.688 1.062 2.031 1.062.625 0 1.219-.265.594-.282 1.219-.86z"/><text x="42.5" y="625.33" fill="#D9B8FF" font-family="Helvetica" font-size="17" textLength="182">aws_ec2_network_acl</text><rect width="144" height="39.789" x="48.5" y="438.76" fill="#3D176E" rx="2.5" ry="2.5" style="stroke:#000d19;stroke-width:.5"/><circle cx="63.5" cy="458.654" r="11" fill="#ADD1B2" style="stroke:#181818;stroke-width:1"/><path d="M66.469 464.295q-.578.297-1.219.438-.64.156-1.344.156-2.5 0-3.828-1.64-1.312-1.657-1.312-4.782t1.312-4.781q1.328-1.656 3.828-1.656.703 0 1.344.156.656.156 1.219.453v2.719q-.625-.579-1.219-.844-.594-.281-1.219-.281-1.344 0-2.031 1.078-.687 1.062-.687 3.156t.687 3.172q.688 1.062 2.031 1.062.625 0 1.219-.265.594-.281 1.219-.86z"/><text x="82.5" y="464.54" fill="#D9B8FF" font-family="Helvetica" font-size="17" textLength="102">network_acl</text><rect width="227" height="310.758" x="7" y="7" fill="#3D176E" rx="2.5" ry="2.5" style="stroke:#000d19;stroke-width:.5"/><circle cx="75.75" cy="26.895" r="11" fill="#ADD1B2" style="stroke:#181818;stroke-width:1"/><path d="M78.719 32.535q-.578.297-1.219.438-.64.156-1.344.156-2.5 0-3.828-1.64-1.312-1.657-1.312-4.782t1.312-4.781q1.328-1.656 3.828-1.656.703 0 1.344.156.656.156 1.219.453v2.719q-.625-.578-1.219-.844-.594-.281-1.219-.281-1.344 0-2.031 1.078-.687 1.062-.687 3.156t.687 3.172q.688 1.062 2.031 1.062.625 0 1.219-.265.594-.281 1.219-.86z"/><text x="101.25" y="32.78" fill="#D9B8FF" font-family="Helvetica" font-size="17" textLength="71">resource</text><path d="M8 46.789h225" style="stroke:#000d19;stroke-width:.5"/><text x="18" y="68.784" fill="#D9B8FF" font-family="sans-serif" font-size="14" font-weight="bold" textLength="29">age</text><text x="47" y="68.784" fill="#D9B8FF" font-family="sans-serif" font-size="14" textLength="66">: duration</text><text x="18" y="95.081" fill="#D9B8FF" font-family="sans-serif" font-size="14" font-weight="bold" textLength="43">atime</text><text x="61" y="95.081" fill="#D9B8FF" font-family="sans-serif" font-size="14" textLength="70">: datetime</text><text x="18" y="121.378" fill="#D9B8FF" font-family="sans-serif" font-size="14" font-weight="bold" textLength="43">ctime</text><text x="61" y="121.378" fill="#D9B8FF" font-family="sans-serif" font-size="14" textLength="70">: datetime</text><text x="18" y="147.675" fill="#D9B8FF" font-family="sans-serif" font-size="14" font-weight="bold" textLength="14">id</text><text x="32" y="147.675" fill="#D9B8FF" font-family="sans-serif" font-size="14" textLength="48">: string</text><text x="18" y="173.972" fill="#D9B8FF" font-family="sans-serif" font-size="14" font-weight="bold" textLength="33">kind</text><text x="51" y="173.972" fill="#D9B8FF" font-family="sans-serif" font-size="14" textLength="48">: string</text><text x="18" y="200.269" fill="#D9B8FF" font-family="sans-serif" font-size="14" font-weight="bold" textLength="90">last_access</text><text x="108" y="200.269" fill="#D9B8FF" font-family="sans-serif" font-size="14" textLength="66">: duration</text><text x="18" y="226.565" fill="#D9B8FF" font-family="sans-serif" font-size="14" font-weight="bold" textLength="90">last_update</text><text x="108" y="226.565" fill="#D9B8FF" font-family="sans-serif" font-size="14" textLength="66">: duration</text><text x="18" y="252.862" fill="#D9B8FF" font-family="sans-serif" font-size="14" font-weight="bold" textLength="48">mtime</text><text x="66" y="252.862" fill="#D9B8FF" font-family="sans-serif" font-size="14" textLength="70">: datetime</text><text x="18" y="279.159" fill="#D9B8FF" font-family="sans-serif" font-size="14" font-weight="bold" textLength="43">name</text><text x="61" y="279.159" fill="#D9B8FF" font-family="sans-serif" font-size="14" textLength="48">: string</text><text x="18" y="305.456" fill="#D9B8FF" font-family="sans-serif" font-size="14" font-weight="bold" textLength="34">tags</text><text x="52" y="305.456" fill="#D9B8FF" font-family="sans-serif" font-size="14" textLength="171">: dictionary[string, string]</text><path fill="none" d="M120.5 496.81v102.41m0-120.41-6 18h12zm0-142.96v102.83m0-120.83-6 18h12z" style="stroke:#ffaf37;stroke-width:2"/></svg>
